X:1
T: Fochaber's Rant
C:William Marshall
R:Reel
Q: 232
K:G
M:4/4
L:1/8
|:g2 bg af gd|g2 bg af g2|g2 bg af ge|=fd cf A=F cA|
g2 bg af gd|g2 bg af g2|g2 bg af ge|=fd cf A=F cA|
Bc1/2d1/2 BG ec dc|Bc1/2d1/2 BG gB d2|Bc1/2d1/2 BG ec dB|cA =FA =fA c2|
Bc1/2d1/2 BG ec dc|Bc1/2d1/2 BG gB d2|Bc1/2d1/2 BG ec dB|cA =FA =fA c2:|
